!!!SOCIAL_FUNCTION:	songs connected with legends
!!!PDT:	1929
!!!OTL: No_23_The_Eagle_Will_Destroy_Us_All.krn
!!!REG: Southwest
!!!LANG: Non-Tone
!!!LING_GROUP: Uto-Aztecan
**kern
*staff1
*clefF4
*k[b-]
*M2/4
4F\
=1
4c\
4c\
=2||
*M3/4
2c\
4c\
=3
4c\
(8B-\L
8G\J)
8G\
8r
=4!|:
4c\
4c\
(8B-\L
8G\J)
=5
4G\
4G\
(8A\L
8G\J)
=6||
*M2/4
4F\
(8D/L
8C/J)
=7
4C;/
4F\
=8||
*M3/4
4F\
4D\
4G\
=9||
*M2/4
(4F\
4D\)
=10||
*M3/4
(4F\
4D\)
8F\
8r
==:|!
*-
